X: 14328
T: Gallic Christmas Song
R: barndance
M: 4/4
K: Aminor
M:3/4
A2|e3 e Bc|d2 d2 A2|c3 c Bc|
A4 A2|e3 e Bc|d2 d2 AB|c3 d cB|
A4 A2|B3 B AB|c2 B2 c2|d3 c BA|
(A2 B2) A2|B3 B AB|c2 B2 c2|ed c2 B2|A6n||

